; HEADER_BLOCK_START
; generated by OrcaSlicer 2.3.1 on 2026-03-30 at 21:56:18
; total layer number: 100
; filament_density: 1.24
; filament_diameter: 1.75
; max_z_height: 20.00
; HEADER_BLOCK_END

; THUMBNAIL_BLOCK_START

;
; THUMBNAIL_BLOCK_END

; THUMBNAIL_BLOCK_START

;
; THUMBNAIL_BLOCK_END

; external perimeters extrusion width = 0.45mm
; perimeters extrusion width = 0.45mm
; infill extrusion width = 0.45mm
; solid infill extrusion width = 0.45mm
; top infill extrusion width = 0.40mm
; first layer extrusion width = 0.42mm

; EXECUTABLE_BLOCK_START
M73 P0 R18
M201 X500 Y500 Z100 E5000
M203 X500 Y500 Z10 E60
M204 P500 R1000 T500
M205 X8.00 Y8.00 Z0.40 E5.00 ; sets the jerk limits, mm/sec
;TYPE:Custom
G90 ; use absolute coordinates
M83 ; extruder relative mode
M140 S60 ; set final bed temp
M104 S150 ; set temporary nozzle temp to prevent oozing during homing
G4 S10 ; allow partial nozzle warmup
G28 ; home all axis
G1 Z50 F240
G1 X2 Y10 F3000
M73 P1 R17
M104 S220 ; set final nozzle temp
M190 S60 ; wait for bed temp to stabilize
M109 S220 ; wait for nozzle temp to stabilize
G1 Z0.28 F240
G92 E0
G1 Y140 E10 F1500 ; prime the nozzle
M73 P2 R17
G1 X2.3 F5000
G92 E0
G1 Y10 E10 F1200 ; prime the nozzle
G92 E0
G90
G21
M83 ; use relative distances for extrusion
; filament start gcode
M106 S0
;LAYER_CHANGE
;Z:0.2
;HEIGHT:0.2
;BEFORE_LAYER_CHANGE
;0.2
G92 E0

G1 E-1 F3600
M73 P3 R17
;_SET_FAN_SPEED_CHANGING_LAYER
G1 Z.6 F9000
G1 X90 Y102.116
G1 Z.6
G1 Z.2
G1 E1 F2400
;TYPE:Skirt
;WIDTH:0.42
G1 F3000
G1 X131.101 Y102.118 E1.26292
G1 X132.906 Y102.305 E.05576
G1 X134.109 Y102.665 E.0386
G1 X135.374 Y103.267 E.04304
G1 X136.239 Y103.868 E.03235
G1 X137.203 Y104.812 E.04148
G1 X138.04 Y106.022 E.0452
G1 X138.626 Y107.368 E.04513
G1 X138.872 Y108.438 E.03372
G1 X138.959 Y110.5 E.06343
G1 X138.846 Y111.738 E.0382
G1 X138.341 Y113.384 E.05291
G1 X137.614 Y114.642 E.04464
G1 X136.951 Y115.468 E.03256
G1 X135.872 Y116.41 E.04401
G1 X134.386 Y117.225 E.05209
G1 X132.937 Y117.688 E.04674
G1 X131 Y117.884 E.05981
G1 X90 Y117.884 E1.25982
G1 X88.822 Y117.813 E.03628
G1 X87.829 Y117.648 E.03093
G1 X86.62 Y117.262 E.03901
G1 X85.502 Y116.718 E.0382
G1 X84.58 Y116.057 E.03486
G1 X83.605 Y115.072 E.04259
G1 X82.881 Y114.041 E.03869
G1 X82.424 Y113.093 E.03235
G1 X82.113 Y112.087 E.03235
G1 X81.932 Y110.633 E.04501
G1 X81.985 Y108.639 E.0613
G1 X82.302 Y107.242 E.04401
G1 X83.045 Y105.689 E.05291
G1 X83.827 Y104.667 E.03953
G1 X85.118 Y103.528 E.05291
G1 X86.62 Y102.738 E.05212
G1 X88.186 Y102.276 E.0502
G1 X89.96 Y102.12 E.05472
G1 X89.993 Y102.494 F9000
G1 F3000
G1 X90 Y102.493 E.00021
G1 X131.086 Y102.495 E1.26246
G1 X132.848 Y102.677 E.05442
G1 X133.991 Y103.024 E.03671
G1 X135.198 Y103.601 E.04111
G1 X136.015 Y104.172 E.03063
G1 X136.908 Y105.047 E.03842
G1 X137.723 Y106.225 E.04402
G1 X138.262 Y107.464 E.04153
G1 X138.497 Y108.472 E.0318
G1 X138.582 Y110.5 E.06236
G1 X138.478 Y111.654 E.03562
G1 X137.99 Y113.247 E.05119
G1 X137.294 Y114.444 E.04254
G1 X136.664 Y115.224 E.03081
G1 X135.669 Y116.093 E.04058
G1 X134.227 Y116.883 E.05053
G1 X132.878 Y117.316 E.04354
G1 X131 Y117.507 E.05799
G1 X90 Y117.507 E1.25982
G1 X88.874 Y117.44 E.03467
G1 X87.933 Y117.286 E.02928
G1 X86.753 Y116.909 E.03808
G1 X85.71 Y116.403 E.03562
G1 X84.841 Y115.785 E.03277
G1 X84.147 Y115.119 E.02956
G1 X83.406 Y114.172 E.03695
M73 P4 R17
G1 X82.908 Y113.271 E.03162
G1 X82.484 Y112.02 E.04058
G1 X82.308 Y110.614 E.04355
G1 X82.361 Y108.667 E.05984
G1 X82.654 Y107.379 E.04058
G1 X83.372 Y105.876 E.05119
G1 X84.097 Y104.931 E.03661
G1 X85.346 Y103.828 E.05119
G1 X86.753 Y103.091 E.0488
G1 X88.238 Y102.649 E.04763
G1 X89.953 Y102.498 E.0529
; printing object Dragon+keyring.stl id:2825732803424 copy 0
G1 E-.7 F3600
;WIPE_START
G1 F3000
G1 X90 Y102.493 E-.01405
G1 X90.953 Y102.494 E-.28595
;WIPE_END
G1 Z.6 F9000
G1 X90.005 Y104.871 Z.6
G1 Z.2
G1 E1 F2400
;TYPE:Brim
G1 F900
G1 X130.996 Y104.871 E1.25954
G1 X131.345 Y104.884 E.01071
G1 X131.807 Y104.921 E.01426
G1 X132.466 Y105.024 E.02048
G1 X133.239 Y105.278 E.025
G1 X133.501 Y105.393 E.00879
G1 X134.077 Y105.696 E.02001
G1 X134.596 Y106.078 E.01979
G1 X135.054 Y106.535 E.01989
G1 X135.277 Y106.815 E.01101
G1 X135.713 Y107.495 E.0248
G1 X135.967 Y108.085 E.01975
G1 X136.131 Y108.706 E.01974
G1 X136.205 Y109.509 E.02477
G1 X136.205 Y110.493 E.03024
G1 X136.157 Y111.142 E.02001
G1 X136.014 Y111.771 E.01979
G1 X135.781 Y112.368 E.0197
G1 X135.278 Y113.184 E.02945
G1 X134.861 Y113.674 E.01978
G1 X134.376 Y114.098 E.01979
G1 X133.832 Y114.446 E.01983
G1 X133.236 Y114.722 E.02019
G1 X132.489 Y114.971 E.02419
G1 X131.809 Y115.079 E.02119
G1 X130.994 Y115.129 E.02507
G1 X90.005 Y115.129 E1.25948
G1 X89.195 Y115.084 E.02494
G1 X88.581 Y114.999 E.01906
G1 X87.906 Y114.803 E.0216
G1 X87.6 Y114.688 E.01003
G1 X87.01 Y114.413 E.02001
G1 X86.475 Y114.059 E.0197
G1 X85.805 Y113.415 E.02855
G1 X85.322 Y112.766 E.02488
G1 X85.028 Y112.194 E.01975
G1 X84.821 Y111.584 E.01979
G1 X84.706 Y110.948 E.01986
G1 X84.683 Y110.495 E.01395
G1 X84.683 Y109.507 E.03036
G1 X84.731 Y108.858 E.02001
G1 X84.873 Y108.229 E.01979
G1 X85.107 Y107.629 E.01979
G1 X85.428 Y107.07 E.01982
G1 X85.806 Y106.584 E.01892
G1 X86.258 Y106.12 E.0199
G1 X86.769 Y105.733 E.0197
G1 X87.603 Y105.311 E.02872
G1 X87.906 Y105.197 E.00993
G1 X88.581 Y105.001 E.0216
G1 X89.195 Y104.916 E.01905
G1 X89.965 Y104.873 E.02371
G1 X89.986 Y105.249 F9000
G1 F900
G1 X90.019 Y105.248 E.001
G1 X130.991 Y105.248 E1.25896
G1 X131.759 Y105.295 E.02364
M73 P5 R17
G1 X132.368 Y105.39 E.01894
G1 X133.099 Y105.629 E.02364
G1 X133.341 Y105.735 E.00811
G1 X133.868 Y106.013 E.01833
G1 X134.356 Y106.371 E.01858
G1 X134.768 Y106.782 E.01789
G1 X134.967 Y107.03 E.00977
G1 X135.382 Y107.681 E.02372
G1 X135.606 Y108.201 E.0174
G1 X135.756 Y108.763 E.01788
G1 X135.828 Y109.521 E.0234
G1 X135.828 Y110.475 E.02931
G1 X135.783 Y111.078 E.01858
G1 X135.655 Y111.652 E.01806
G1 X135.437 Y112.208 E.01835
G1 X134.967 Y112.968 E.02747
G1 X134.586 Y113.414 E.01803
G1 X134.156 Y113.79 E.01755
G1 X133.644 Y114.118 E.01868
G1 X133.091 Y114.373 E.01871
G1 X132.409 Y114.6 E.0221
G1 X131.773 Y114.703 E.0198
G1 X130.979 Y114.752 E.02443
G1 X90.019 Y114.752 E1.25859
G1 X89.236 Y114.709 E.02408
G1 X88.652 Y114.627 E.01813
G1 X88.021 Y114.444 E.0202
G1 X87.743 Y114.338 E.00912
G1 X87.202 Y114.087 E.01833
G1 X86.705 Y113.757 E.01835
G1 X86.096 Y113.172 E.02593
G1 X85.639 Y112.557 E.02353
G1 X85.373 Y112.039 E.01791
G1 X85.19 Y111.498 E.01755
G1 X85.083 Y110.912 E.0183
G1 X85.06 Y110.482 E.01322
G1 X85.06 Y109.525 E.02941
G1 X85.107 Y108.905 E.0191
G1 X85.233 Y108.349 E.01755
G1 X85.445 Y107.8 E.01806
G1 X85.747 Y107.274 E.01864
G1 X86.095 Y106.827 E.01741
G1 X86.503 Y106.41 E.01793
G1 X86.979 Y106.049 E.01835
G1 X87.75 Y105.659 E.02655
G1 X88.021 Y105.556 E.0089
G1 X88.652 Y105.373 E.0202
G1 X89.227 Y105.292 E.01784
G1 X89.946 Y105.252 E.02214
G1 X89.967 Y105.628 F9000
G1 F900
G1 X90.032 Y105.625 E.002
G1 X130.976 Y105.625 E1.25808
G1 X131.713 Y105.67 E.02269
G1 X132.271 Y105.756 E.01734
G1 X132.96 Y105.981 E.02227
G1 X133.658 Y106.328 E.02397
G1 X134.115 Y106.664 E.01744
G1 X134.483 Y107.029 E.01591
G1 X134.656 Y107.245 E.00851
G1 X135.052 Y107.866 E.02262
G1 X135.251 Y108.332 E.01558
G1 X135.381 Y108.82 E.01552
G1 X135.45 Y109.533 E.02201
G1 X135.451 Y110.457 E.02837
G1 X135.41 Y111.014 E.01717
G1 X135.295 Y111.532 E.01632
G1 X135.093 Y112.047 E.01699
G1 X134.655 Y112.751 E.02548
G1 X134.322 Y113.142 E.01578
G1 X133.935 Y113.482 E.01583
G1 X133.455 Y113.79 E.01752
G1 X132.946 Y114.024 E.01723
G1 X132.327 Y114.23 E.02004
G1 X131.736 Y114.327 E.0184
G1 X130.964 Y114.375 E.02378
G1 X90.032 Y114.375 E1.25771
G1 X89.278 Y114.334 E.02322
M73 P6 R17
G1 X88.723 Y114.255 E.01721
G1 X88.136 Y114.084 E.0188
G1 X87.886 Y113.989 E.00822
G1 X87.395 Y113.76 E.01664
G1 X86.934 Y113.454 E.017
G1 X86.387 Y112.928 E.02332
G1 X85.956 Y112.349 E.02218
G1 X85.725 Y111.899 E.01555
G1 X85.558 Y111.411 E.01584
G1 X85.458 Y110.861 E.01718
G1 X85.437 Y110.469 E.01205
G1 X85.437 Y109.544 E.02843
G1 X85.482 Y108.954 E.01819
G1 X85.598 Y108.451 E.01584
G1 X85.784 Y107.971 E.01582
G1 X86.066 Y107.478 E.01745
G1 X86.384 Y107.071 E.01589
G1 X86.747 Y106.699 E.01596
G1 X87.188 Y106.366 E.017
G1 X87.897 Y106.007 E.02441
G1 X88.136 Y105.916 E.00786
G1 X88.724 Y105.745 E.0188
G1 X89.259 Y105.668 E.01663
G1 X89.928 Y105.631 E.02057
G1 X89.949 Y106.007 F9000
G1 F900
G1 X90.046 Y106.002 E.003
G1 X130.961 Y106.002 E1.2572
G1 X131.667 Y106.045 E.02174
M73 P6 R16
G1 X132.174 Y106.123 E.01575
G1 X132.809 Y106.328 E.02049
G1 X133.452 Y106.647 E.02207
G1 X133.876 Y106.957 E.01613
G1 X134.197 Y107.278 E.01394
G1 X134.345 Y107.461 E.00723
G1 X134.721 Y108.051 E.02151
G1 X134.891 Y108.448 E.01326
G1 X135.006 Y108.878 E.01369
G1 X135.072 Y109.546 E.02062
G1 X135.074 Y110.439 E.02742
G1 X135.037 Y110.951 E.01577
G1 X134.935 Y111.414 E.01455
G1 X134.749 Y111.886 E.01561
G1 X134.345 Y112.535 E.02349
G1 X134.047 Y112.882 E.01406
G1 X133.714 Y113.174 E.01361
G1 X133.266 Y113.461 E.01634
G1 X132.801 Y113.675 E.01573
G1 X132.245 Y113.86 E.018
G1 X131.688 Y113.952 E.01735
G1 X130.948 Y113.998 E.02277
G1 X90.046 Y113.998 E1.25682
G1 X89.32 Y113.958 E.02234
G1 X88.795 Y113.883 E.01628
G1 X88.246 Y113.723 E.01757
G1 X87.59 Y113.435 E.02201
G1 X87.164 Y113.152 E.01574
G1 X86.665 Y112.67 E.02129
G1 X86.273 Y112.141 E.02025
G1 X86.07 Y111.743 E.01371
G1 X85.927 Y111.323 E.01364
G1 X85.832 Y110.809 E.01606
G1 X85.814 Y110.456 E.01087
G1 X85.814 Y109.563 E.02745
G1 X85.858 Y109.002 E.01727
G1 X85.957 Y108.57 E.01363
G1 X86.122 Y108.142 E.0141
G1 X86.385 Y107.683 E.01625
G1 X86.673 Y107.315 E.01436
G1 X86.991 Y106.989 E.01399
G1 X87.398 Y106.682 E.01566
G1 X88.045 Y106.355 E.02229
G1 X88.252 Y106.275 E.00681
G1 X88.796 Y106.117 E.01741
G1 X89.292 Y106.044 E.0154
G1 X89.909 Y106.01 E.01899
G1 X89.93 Y106.386 F9000
G1 F900
G1 X90.06 Y106.379 E.004
G1 X130.946 Y106.379 E1.25631
G1 X131.622 Y106.42 E.02081
M73 P7 R16
G1 X132.095 Y106.494 E.01473
G1 X132.674 Y106.682 E.01869
G1 X133.247 Y106.966 E.01966
G1 X133.623 Y107.24 E.01429
G1 X133.912 Y107.526 E.01251
G1 X134.034 Y107.676 E.00594
G1 X134.39 Y108.236 E.02039
G1 X134.536 Y108.58 E.01146
G1 X134.632 Y108.937 E.01138
G1 X134.695 Y109.56 E.01922
G1 X134.696 Y110.43 E.02673
G1 X134.663 Y110.888 E.01413
G1 X134.575 Y111.295 E.01277
G1 X134.405 Y111.725 E.01421
G1 X134.034 Y112.318 E.02149
G1 X133.783 Y112.61 E.01185
G1 X133.493 Y112.866 E.0119
G1 X133.078 Y113.133 E.01516
G1 X132.657 Y113.326 E.01424
G1 X132.163 Y113.49 E.01599
G1 X131.64 Y113.577 E.01629
G1 X130.933 Y113.621 E.02176
G1 X90.059 Y113.621 E1.25594
G1 X89.362 Y113.583 E.02146
G1 X88.868 Y113.511 E.01535
G1 X88.369 Y113.365 E.01598
G1 X87.78 Y113.107 E.01973
G1 X87.393 Y112.849 E.01428
G1 X86.944 Y112.413 E.01925
G1 X86.59 Y111.933 E.01832
G1 X86.416 Y111.588 E.01188
G1 X86.295 Y111.236 E.01145
G1 X86.207 Y110.753 E.01506
G1 X86.191 Y109.584 E.03594
G1 X86.234 Y109.052 E.0164
G1 X86.322 Y108.673 E.01195
G1 X86.46 Y108.312 E.01188
G1 X86.703 Y107.887 E.01503
G1 X86.953 Y107.569 E.01244
G1 X87.235 Y107.279 E.0124
G1 X87.607 Y106.999 E.01431
G1 X88.193 Y106.703 E.0202
G1 X88.377 Y106.631 E.00606
G1 X88.869 Y106.488 E.01572
G1 X89.335 Y106.42 E.01448
G1 X89.89 Y106.388 E.01709
G1 X89.911 Y106.765 F9000
G1 F900
G1 X90.074 Y106.756 E.00501
G1 X130.931 Y106.756 E1.25543
G1 X131.576 Y106.795 E.01985
G1 X132.016 Y106.865 E.01369
G1 X132.538 Y107.036 E.01688
G1 X133.058 Y107.295 E.01786
G1 X133.386 Y107.536 E.01251
G1 X133.732 Y107.902 E.01545
G1 X134.058 Y108.421 E.01883
G1 X134.18 Y108.711 E.00966
G1 X134.261 Y109.015 E.00967
G1 X134.318 Y109.585 E.0176
G1 X134.319 Y110.412 E.02542
G1 X134.287 Y110.842 E.01326
G1 X134.21 Y111.193 E.01105
G1 X134.071 Y111.544 E.0116
G1 X133.734 Y112.086 E.01961
G1 X133.519 Y112.339 E.01019
G1 X133.271 Y112.559 E.01018
G1 X132.889 Y112.804 E.01396
G1 X132.512 Y112.976 E.01273
G1 X132.08 Y113.12 E.014
G1 X131.591 Y113.202 E.01523
G1 X130.918 Y113.244 E.02072
G1 X90.073 Y113.244 E1.25506
G1 X89.404 Y113.208 E.02056
M73 P8 R16
G1 X88.941 Y113.14 E.0144
G1 X88.491 Y113.007 E.0144
G1 X87.971 Y112.779 E.01746
G1 X87.624 Y112.547 E.01282
G1 X87.223 Y112.157 E.01719
G1 X86.909 Y111.727 E.01638
G1 X86.768 Y111.449 E.00958
G1 X86.664 Y111.148 E.00977
G1 X86.584 Y110.707 E.01377
G1 X86.568 Y109.602 E.03397
G1 X86.609 Y109.102 E.01541
G1 X86.681 Y108.791 E.00979
G1 X86.799 Y108.482 E.01016
G1 X87.022 Y108.092 E.01382
G1 X87.234 Y107.822 E.01054
G1 X87.478 Y107.569 E.0108
G1 X87.818 Y107.315 E.01302
G1 X88.503 Y106.988 E.02335
G1 X88.942 Y106.86 E.01404
G1 X89.378 Y106.795 E.01355
G1 X89.871 Y106.767 E.01518
G1 X89.871 Y107.142 F9000
G1 F900
G1 X131.168 Y107.143 E1.26893
G1 X131.88 Y107.228 E.02206
G1 X132.422 Y107.394 E.01739
G1 X132.725 Y107.54 E.01034
G1 X132.947 Y107.676 E.00799
G1 X133.405 Y108.114 E.01948
G1 X133.72 Y108.609 E.01802
G1 X133.769 Y108.717 E.00365
G1 X133.888 Y109.11 E.01264
G1 X133.906 Y109.226 E.00358
G1 X133.935 Y110.517 E.0397
G1 X133.842 Y111.057 E.01684
G1 X133.663 Y111.503 E.01477
G1 X133.417 Y111.88 E.0138
G1 X133.051 Y112.242 E.01583
G1 X132.646 Y112.501 E.01479
G1 X132.098 Y112.722 E.01815
G1 X131.628 Y112.82 E.01474
G1 X131.053 Y112.864 E.01774
G1 X89.938 Y112.863 E1.26336
G1 X89.071 Y112.772 E.02676
G1 X88.457 Y112.585 E.01974
G1 X87.933 Y112.302 E.0183
G1 X87.543 Y111.952 E.0161
G1 X87.219 Y111.488 E.01739
G1 X87.034 Y111.008 E.01582
G1 X86.945 Y110.449 E.01738
G1 X86.945 Y109.541 E.0279
G1 X87.025 Y108.997 E.0169
G1 X87.128 Y108.704 E.00955
G1 X87.299 Y108.372 E.01147
G1 X87.57 Y108.015 E.01377
G1 X88.024 Y107.633 E.01824
G1 X88.49 Y107.398 E.01604
G1 X89.024 Y107.239 E.0171
G1 X89.831 Y107.146 E.02498
G1 X89.875 Y107.521 F9000
G1 F900
G1 X89.918 Y107.516 E.00135
G1 X131.121 Y107.517 E1.26606
G1 X131.766 Y107.588 E.01993
G1 X132.25 Y107.729 E.01548
G1 X132.565 Y107.882 E.01078
M73 P9 R16
G1 X132.755 Y108.001 E.00688
G1 X133.083 Y108.311 E.01386
G1 X133.406 Y108.818 E.01847
G1 X133.529 Y109.227 E.01312
G1 X133.559 Y110.537 E.04027
G1 X133.47 Y110.996 E.01436
G1 X133.313 Y111.363 E.01228
G1 X133.1 Y111.676 E.01162
G1 X132.785 Y111.975 E.01336
G1 X132.442 Y112.184 E.01233
G1 X131.954 Y112.373 E.0161
G1 X131.607 Y112.443 E.01087
G1 X131.02 Y112.488 E.0181
G1 X89.978 Y112.488 E1.2611
G1 X89.186 Y112.413 E.02446
G1 X88.636 Y112.253 E.01758
G1 X88.186 Y112.023 E.01553
G1 X87.852 Y111.737 E.01349
G1 X87.572 Y111.356 E.01456
G1 X87.407 Y110.955 E.01331
G1 X87.322 Y110.458 E.01548
G1 X87.322 Y109.533 E.02843
G1 X87.377 Y109.132 E.01244
G1 X87.486 Y108.821 E.01012
G1 X87.635 Y108.542 E.0097
G1 X87.873 Y108.239 E.01183
G1 X88.189 Y107.973 E.01271
G1 X88.595 Y107.76 E.01408
G1 X89.057 Y107.615 E.01488
G1 X89.835 Y107.525 E.02406
G1 X89.878 Y107.9 F9000
G1 F900
G1 X89.968 Y107.89 E.00278
G1 X131.079 Y107.892 E1.26325
G1 X131.658 Y107.949 E.01786
G1 X132.077 Y108.065 E.01336
G1 X132.406 Y108.224 E.01125
G1 X132.559 Y108.323 E.00557
G1 X132.826 Y108.587 E.01156
G1 X133.049 Y108.939 E.01281
G1 X133.12 Y109.128 E.00621
G1 X133.164 Y109.321 E.00607
G1 X133.188 Y110.468 E.03524
G1 X133.128 Y110.836 E.01147
G1 X132.962 Y111.225 E.01299
G1 X132.79 Y111.461 E.00898
G1 X132.525 Y111.702 E.011
G1 X132.248 Y111.861 E.00981
G1 X131.814 Y112.023 E.01423
G1 X131.585 Y112.067 E.00717
G1 X130.987 Y112.113 E.01845
G1 X90.013 Y112.113 E1.259
G1 X89.301 Y112.054 E.02195
G1 X88.731 Y111.888 E.01824
G1 X88.431 Y111.737 E.01032
G1 X88.155 Y111.513 E.01091
G1 X87.92 Y111.212 E.01174
G1 X87.779 Y110.896 E.01064
G1 X87.699 Y110.468 E.01338
G1 X87.699 Y109.525 E.02896
G1 X87.733 Y109.257 E.00831
G1 X87.815 Y109.006 E.00811
G1 X87.972 Y108.711 E.01028
G1 X88.169 Y108.472 E.0095
G1 X88.433 Y108.26 E.01041
G1 X88.708 Y108.119 E.00949
G1 X89.089 Y107.991 E.01237
G1 X89.838 Y107.905 E.02316
G1 X89.876 Y108.278 F9000
G1 F900
G1 X90.011 Y108.264 E.00416
G1 X131.037 Y108.267 E1.26063
G1 X131.63 Y108.325 E.01833
M73 P10 R16
G1 X131.903 Y108.4 E.00869
G1 X132.248 Y108.567 E.01178
G1 X132.353 Y108.638 E.00389
G1 X132.562 Y108.855 E.00926
